icons/square-percent-outline.svg

<svg xmlns="http://www.w3.org/2000/svg" width="24" height="24" viewBox="0 0 24 24">
  <path d="M19,2 C20.6568542,2 22,3.34314575 22,5 L22,5 L22,19 C22,20.6568542 20.6568542,22 19,22 L19,22 L5,22 C3.34314575,22 2,20.6568542 2,19 L2,19 L2,5 C2,3.34314575 3.34314575,2 5,2 L5,2 Z M19,4 L5,4 C4.44771525,4 4,4.44771525 4,5 L4,5 L4,19 C4,19.5522847 4.44771525,20 5,20 L5,20 L19,20 C19.5522847,20 20,19.5522847 20,19 L20,19 L20,5 C20,4.44771525 19.5522847,4 19,4 L19,4 Z M16.5606602,14.4393398 C17.1464466,15.0251263 17.1464466,15.9748737 16.5606602,16.5606602 C15.9748737,17.1464466 15.0251263,17.1464466 14.4393398,16.5606602 C13.8535534,15.9748737 13.8535534,15.0251263 14.4393398,14.4393398 C15.0251263,13.8535534 15.9748737,13.8535534 16.5606602,14.4393398 Z M16.7071068,7.29289322 C17.0675907,7.65337718 17.0953203,8.22060824 16.7902954,8.61289944 L16.7071068,8.70710678 L8.70710678,16.7071068 C8.31658249,17.0976311 7.68341751,17.0976311 7.29289322,16.7071068 C6.93240926,16.3466228 6.90467972,15.7793918 7.20970461,15.3871006 L7.29289322,15.2928932 L15.2928932,7.29289322 C15.6834175,6.90236893 16.3165825,6.90236893 16.7071068,7.29289322 Z M9.56066017,7.43933983 C10.1464466,8.02512627 10.1464466,8.97487373 9.56066017,9.56066017 C8.97487373,10.1464466 8.02512627,10.1464466 7.43933983,9.56066017 C6.85355339,8.97487373 6.85355339,8.02512627 7.43933983,7.43933983 C8.02512627,6.85355339 8.97487373,6.85355339 9.56066017,7.43933983 Z"/>
</svg>

<svg xmlns="http://www.w3.org/2000/svg" viewBox="0 0 24 24">
  <path d="M19 2a3 3 0 0 1 3 3v14a3 3 0 0 1-3 3H5a3 3 0 0 1-3-3V5a3 3 0 0 1 3-3zm0 2H5a1 1 0 0 0-1 1v14a1 1 0 0 0 1 1h14a1 1 0 0 0 1-1V5a1 1 0 0 0-1-1zm-2.44 10.44a1.5 1.5 0 1 1-2.12 2.12 1.5 1.5 0 0 1 2.12-2.12zm.15-7.15a1 1 0 0 1 .08 1.32l-.08.1-8 8a1 1 0 0 1-1.5-1.32l.08-.1 8-8a1 1 0 0 1 1.42 0zm-7.15.15a1.5 1.5 0 1 1-2.12 2.12 1.5 1.5 0 0 1 2.12-2.12z"/>
</svg>
